svgs/sharp-duotone-regular/flower.svg

<svg xmlns="http://www.w3.org/2000/svg" viewBox="0 0 448 512"><!--! Font Awesome Pro 7.1.0 by @fontawesome - https://fontawesome.com License - https://fontawesome.com/license (Commercial License) Copyright 2025 Fonticons, Inc. --><path opacity=".4" fill="currentColor" d="M48 168c0 21.8 7.8 41.6 20.9 56.9L95.3 256 68.9 287.1c-13.1 15.4-20.9 35.2-20.9 56.9 0 48.6 39.4 88 88 88 21.8 0 41.6-7.8 56.9-20.9l31.1-26.4 31.1 26.4c15.4 13.1 35.2 20.9 56.9 20.9 48.6 0 88-39.4 88-88 0-21.8-7.8-41.6-20.9-56.9l-26.4-31.1 26.4-31.1c13.1-15.4 20.9-35.2 20.9-56.9 0-48.6-39.4-88-88-88-21.8 0-41.6 7.8-56.9 20.9l-31.1 26.4-31.1-26.4C177.6 87.8 157.8 80 136 80 87.4 80 48 119.4 48 168zm80 88l96-96c51.9 51.9 75.1 75.1 96 96l-96 96c-51.9-51.9-75.1-75.1-96-96z"/><path fill="currentColor" d="M192.9 100.9c-15.4-13.1-35.2-20.9-56.9-20.9-48.6 0-88 39.4-88 88 0 21.8 7.8 41.6 20.9 56.9L95.3 256 68.9 287.1c-13.1 15.4-20.9 35.2-20.9 56.9 0 48.6 39.4 88 88 88 21.8 0 41.6-7.8 56.9-20.9l31.1-26.4 31.1 26.4c15.4 13.1 35.2 20.9 56.9 20.9 48.6 0 88-39.4 88-88 0-21.8-7.8-41.6-20.9-56.9l-26.4-31.1 26.4-31.1c13.1-15.4 20.9-35.2 20.9-56.9 0-48.6-39.4-88-88-88-21.8 0-41.6 7.8-56.9 20.9l-31.1 26.4-31.1-26.4zM448 168c0 33.6-12.2 64.3-32.3 88 20.1 23.7 32.3 54.4 32.3 88 0 75.1-60.9 136-136 136-33.6 0-64.3-12.2-88-32.3-23.7 20.1-54.4 32.3-88 32.3-75.1 0-136-60.9-136-136 0-33.6 12.2-64.3 32.3-88-20.1-23.7-32.3-54.4-32.3-88 0-75.1 60.9-136 136-136 33.6 0 64.3 12.2 88 32.3 23.7-20.1 54.4-32.3 88-32.3 75.1 0 136 60.9 136 136zM224 352c-51.9-51.9-75.1-75.1-96-96l96-96c51.9 51.9 75.1 75.1 96 96l-96 96zm0-67.9L252.1 256 224 227.9 195.9 256 224 284.1z"/></svg>

<svg xmlns="http://www.w3.org/2000/svg" viewBox="0 0 448 512"><!--! Font Awesome Pro 6.7.2 by @fontawesome - https://fontawesome.com License - https://fontawesome.com/license (Commercial License) Copyright 2024 Fonticons, Inc. --><defs><style>.fa-secondary{opacity:.4}</style></defs><path class="fa-secondary" d="M48 168c0 21.8 7.8 41.6 20.9 56.9L95.3 256 68.9 287.1C55.8 302.4 48 322.2 48 344c0 48.6 39.4 88 88 88c21.8 0 41.6-7.8 56.9-20.9L224 384.7l31.1 26.4C270.4 424.2 290.2 432 312 432c48.6 0 88-39.4 88-88c0-21.8-7.8-41.6-20.9-56.9L352.7 256l26.4-31.1C392.2 209.6 400 189.8 400 168c0-48.6-39.4-88-88-88c-21.8 0-41.6 7.8-56.9 20.9L224 127.3l-31.1-26.4C177.6 87.8 157.8 80 136 80c-48.6 0-88 39.4-88 88zm80 88l33.9-33.9 28.1-28.1L224 160l33.9 33.9 28.1 28.1L320 256l-33.9 33.9-28.1 28.1L224 352l-33.9-33.9-28.1-28.1L128 256z"/><path class="fa-primary" d="M192.9 100.9C177.6 87.8 157.8 80 136 80c-48.6 0-88 39.4-88 88c0 21.8 7.8 41.6 20.9 56.9L95.3 256 68.9 287.1C55.8 302.4 48 322.2 48 344c0 48.6 39.4 88 88 88c21.8 0 41.6-7.8 56.9-20.9L224 384.7l31.1 26.4C270.4 424.2 290.2 432 312 432c48.6 0 88-39.4 88-88c0-21.8-7.8-41.6-20.9-56.9L352.7 256l26.4-31.1C392.2 209.6 400 189.8 400 168c0-48.6-39.4-88-88-88c-21.8 0-41.6 7.8-56.9 20.9L224 127.3l-31.1-26.4zM448 168c0 33.6-12.2 64.3-32.3 88c20.1 23.7 32.3 54.4 32.3 88c0 75.1-60.9 136-136 136c-33.6 0-64.3-12.2-88-32.3c-23.7 20.1-54.4 32.3-88 32.3C60.9 480 0 419.1 0 344c0-33.6 12.2-64.3 32.3-88C12.2 232.3 0 201.6 0 168C0 92.9 60.9 32 136 32c33.6 0 64.3 12.2 88 32.3C247.7 44.2 278.4 32 312 32c75.1 0 136 60.9 136 136zM224 352l-33.9-33.9-28.1-28.1L128 256l33.9-33.9 28.1-28.1L224 160l33.9 33.9 28.1 28.1L320 256l-33.9 33.9-28.1 28.1L224 352zm0-67.9L252.1 256 224 227.9 195.9 256 224 284.1z"/></svg>
